svg/u1f32e.svg

<svg viewBox="0 0 128 128" xmlns="http://www.w3.org/2000/svg">
  <path d="M44.56,106.02l-4.03,7.17c0,0,6.82-1.76,13.54-6.23s12.31-11.37,24.99-19.58 c14-9.06,31.7-10.81,40.84-20.88c7.19-7.92,6.82-19,3.17-28.16c-4.01-10.05-9.9-13.79-9.9-13.79L44.56,106.02z" fill="#FFB803"/>
  <path d="M96.21,32.55c0.75-0.56-10.44-12.31-10.44-12.31S67.68,6.82,41.95,17.82S0.93,59.96,3.91,84.95 c2.65,22.16,12.76,29.74,23.46,29.26c16.6-0.75,24.9-11.76,24.9-11.76L96.21,32.55z" fill="#FFAA00"/>
  <path d="M84.06,21.27c0,0-10.6-9.61-34.47-3.08S5.03,54.74,6.52,81.22c1.45,25.75,12.87,23.31,12.87,23.31 s32.44-50.9,33.38-51.65C53.7,52.13,84.06,21.27,84.06,21.27z" fill="#FFE265"/>
  <path d="M31.43,109.76c0,0-6.7,2.53-11.39,0.59s-7.51-7.45-7.28-10.51c0.36-4.82,4.2-5.34,4.2-5.34L24,81.49 l-8.65-18.43c0,0-0.57-3.56,0.65-5.17c1.21-1.62,2.83-2.43,4.93-2.83s13.26-7.76,13.26-7.76S32,40.5,35.64,35.81 s7.11-5.17,7.11-5.17s2.51-0.73,5.66-0.08c3.15,0.65,4.69,1.62,4.69,1.62l5.66-3.72l9.3-0.65c0,0,1.05-1.94,1.21-2.59 c0.16-0.65,0.15-3.21,4.28-5.8s7.26-1.88,8.41-1.64c2.07,0.43,3.53,1.42,4.15,3.1c0.89,2.4-0.75,11.37-0.75,11.37l-43.95,68.48 L31.43,109.76z" fill="#DA8119"/>
  <path d="M31.94,54.69l-12.88,3.3c0,0-0.11,5.9,3.69,8.35s6.41,1.69,12.24,0.84 c5.82-0.84,12.07-1.52,13.33-3.97c1.27-2.45,0-5.23-1.94-7.43c-1.94-2.19-5.26-5.54-5.26-5.54L31.94,54.69z" fill="#714C40"/>
  <path d="M16.16,85.25l-2.04-1.15c0,0-0.37,2.41-0.4,3.85c-0.06,2.76,1.7,5.36,1.7,5.36s-0.55,5.68-0.21,6.61 s16.65,3.98,16.65,3.98l5.32-1.77l5.06-17.39l-13.93-1.52C28.31,83.22,16.41,84.83,16.16,85.25z" fill="#714C40"/>
  <path d="M71.37,30.09l-6.09,4.7c0,0,0.46,2.61,3.19,3.25c2.72,0.64,6.09-2.38,8.12-4.06s6.2-6.38,5.68-7.01 c-0.52-0.64-5.8-1.28-5.8-1.28L71.37,30.09z" fill="#714C40"/>
  <path d="M69.05,34.61c1.75-0.3,9.1-8.58,9.22-9.1c0.12-0.52-6.26-2.2-8.46-1.1s-5.28,3.36-5.39,5.62 c-0.12,2.26-0.06,4.41,0.87,4.75C66.21,35.13,67.72,34.84,69.05,34.61z" fill="#AC5832"/>
  <path d="M26.64,63.84c3.39,0.14,10.65-1.94,13.96-4.92s1.69-6.86,1.21-7.83s-3.55-4.52-6.78-4.6 s-14.77,6.05-15.81,9.52s1.21,4.68,2.58,5.73C23.17,62.79,24.62,63.76,26.64,63.84z" fill="#AC5832"/>
  <path d="M41.49,77.47c0,0,0.65-1.78,0.65-2.9c0-1.13-1.13-3.63-2.42-3.07s-5.24,6.54-5.24,6.54 s-4.52-3.15-9.44-2.74s-8.39,4.36-9.68,6.21s-1.39,2.92-1.3,4.16c0.09,1.24,3.56,5.12,5.01,6.09s9.68,1.13,10.73,0.48 c1.05-0.65,5.81-5.33,6.62-6.94S41.49,77.47,41.49,77.47z" fill="#AC5832"/>
  <path d="M25.91,96.6c0,0-2.9-2.18-4.28-2.58c-1.37-0.4-5.81,0.16-6.21,1.45c-0.4,1.29-0.48,3.23-0.32,4.52 c0.16,1.29,2.42,5.41,3.15,6.45c0.73,1.05,5.65,3.39,6.86,3.39s4.76-0.08,5.33-0.56c0.56-0.48,0.55-3.29-0.16-5.65 C29.46,100.95,25.91,96.6,25.91,96.6z" fill="#AC5832"/>
  <path d="M26.23,43.53c-0.22,0.73-0.73,6.05,0.4,6.86c1.13,0.81,7.42-1.94,7.58-2.74 c0.16-0.81-0.24-5.49-1.05-6.78S26.71,41.92,26.23,43.53z" fill="#4E8F34"/>
  <path d="M37.05,28.5c-1.78,0.59-3.23,7.99-2.34,8.79s7.75,1.94,8.79,1.13c1.05-0.81,1.37-6.29,0.73-7.02 C43.58,30.68,38.99,27.85,37.05,28.5z" fill="#4E8F34"/>
  <path d="M98.69,22.53c0,0,0.48-3.95-1.45-4.36c-1.94-0.4-2.99,2.18-2.99,2.18s-1.13-4.36-3.23-4.68 c-1.39-0.21-4.52,1.53-5.08,3.31s-0.73,3.63-0.73,3.63s-2.58-0.65-1.78,2.02c0.81,2.66,1.61,5.41,1.61,5.41S98.69,22.37,98.69,22.53 z" fill="#4E8F34"/>
  <path d="M50.68,31c0.36,1.59,2.66,4.44,3.55,4.52c0.89,0.08,6.86-4.44,6.78-5.73s-2.42-6.21-4.2-6.62 S50.28,29.22,50.68,31z" fill="#4E8F34"/>
  <path d="M64.06,22.92c-2.42-0.65-4.03,4.84-3.55,5.81s3.63,1.61,5,0.56S66.27,23.5,64.06,22.92z" fill="#4E8F34"/>
  <path d="M46.81,75.94c2.14,0.71,6.21-8.79,6.21-11.05c0-2.26-4.44-4.6-5.73-3.95 c-1.29,0.65-5.49,6.7-5.49,8.23C41.81,70.7,45.12,75.38,46.81,75.94z" fill="#4E8F34"/>
  <path d="M48.75,85.22c0,0-4.68-8.63-5.41-9.44s-2.02-1.86-3.71-0.24s-3.87,7.42-3.47,9.04s3.23,4.2,3.07,4.52 s-5.16,1.78-5.65,4.03c-0.48,2.26,1.21,8.63,2.5,9.52c1.29,0.89,4.36,0.08,4.36,0.08L48.75,85.22z" fill="#4E8F34"/>
  <path d="M13.65,63.19c-1.78,0-1.05,2.9-0.81,4.52c0.24,1.61-0.32,3.71,1.78,3.87 c2.1,0.16,6.78-1.21,6.78-1.21s-0.16-1.78-1.21-3.95c-1.05-2.18-1.29-3.47-2.42-3.31C16.64,63.27,13.65,63.19,13.65,63.19z" fill="#4E8F34"/>
  <path d="M26.08,75.3c0.65,2.26-6.05,6.94-8.15,6.13c-3.41-1.31-5.24-5.81-4.6-8.47 c0.65-2.66,7.26-4.2,8.39-4.2C22.85,68.76,25.51,73.32,26.08,75.3z" fill="#FCECC8"/>
  <path d="M24.62,70.7c0.24,3.39,2.48,7.38,4.68,7.5c1.45,0.08,3.98-1.87,5.97-3.23 c2.02-1.37,3.55-2.82,4.36-3.79c0.81-0.97-1.21-3.71-2.42-5.16c-1.21-1.45-2.59-2.3-3.63-2.02c-1.78,0.48-2.74,1.13-5,2.58 C27.22,67.45,24.5,68.91,24.62,70.7z" fill="#FCECC8"/>
  <path d="M22.93,85.14c0.08,2.12,1.53,2.34,3.23,3.15s3.39,1.29,4.44,0.24s1.86-6.7,1.37-8.23 c-0.48-1.53-4.03-2.26-5.49-1.78C25.38,78.89,22.85,82.88,22.93,85.14z" fill="#FCECC8"/>
  <path d="M35.19,42.62c0.62,1.76,4.44,3.87,5.89,3.31c1.45-0.56,2.26-7.18,1.86-8.71 c-0.4-1.53-6.45-0.89-7.1,0.08C35.19,38.26,34.71,41.25,35.19,42.62z" fill="#FCECC8"/>
  <path d="M43.67,42.78c-0.32,1.58,2.34,3.71,2.99,4.03c0.65,0.32,1.94,0.32,1.94,0.32s-1.29,2.66-1.86,4.28 s-1.86,5.57-0.65,6.13c1.21,0.56,7.5,1.45,8.55-0.08c1.05-1.53,2.66-8.79,1.78-9.92c-0.89-1.13-6.29-1.21-6.29-1.21 s1.69-0.89,2.1-1.78s-1.94-4.11-3.55-4.36C47.05,39.96,43.99,41.17,43.67,42.78z" fill="#FCECC8"/>
  <path d="M46.33,36.97c0.21,1.38,2.34,2.74,4.28,2.42c1.94-0.32,2.5-5.24,2.02-5.73s-3.07-1.29-3.95-0.81 C47.78,33.34,46.17,35.92,46.33,36.97z" fill="#FCECC8"/>
  <path d="M56.25,36.41c-0.66,2.3,1.48,6.34,3.71,6.7c2.02,0.32,7.26-3.23,7.99-4.68 c0.73-1.45-3.47-5.89-4.68-6.05c-1.21-0.16-3.31,1.37-4.11,1.94C58.35,34.87,56.57,35.28,56.25,36.41z" fill="#FCECC8"/>
  <path d="M77.31,20.59c-1.07,0.66-1.6,6.4-0.73,7.91c0.89,1.53,5.81,0.97,7.5-1.37 c0.89-1.23,0.65-6.45-0.16-6.78C83.12,20.03,78.36,19.95,77.31,20.59z" fill="#FCECC8"/>
  <path d="M39.02,104.09c0,0-0.91-2.36-2.67-2.91c-1.76-0.55-5.28,1.88-5.28,1.88s-0.55-5.58-1.7-6.73 c-1.15-1.15-4.18-0.61-4.91-0.24c-0.73,0.36-3.03,1.82-3.15,2.67s0.06,7.09,1.58,7.64s2.67,0.85,3.82,0.67s2.91-0.91,2.91-0.91 s-0.55,2.43,0.3,3.27c0.85,0.85,3.82-0.06,4-0.18C34.11,109.12,39.02,104.09,39.02,104.09z" fill="#FCECC8"/>
  <path d="M36.12,113.05l-7.17-2.58c0,0,3.28-0.33,6.48-3.77c4.83-5.2,9.65-16.69,12.96-25.38 c3.31-8.69,6.62-17.93,11.17-27.03s13.81-20.76,23.45-27.86c11.86-8.73,24.31-4.31,24.31-4.31l-3.21,28.04l-55.58,56.69 L36.12,113.05z" fill="#FFAA00"/>
  <path d="M112.84,58.5c8.2-9.4,8.69-21.78,5.07-28.89c-3.86-7.59-14.62-9.24-21.38-7.31 c-6.73,1.92-19.58,8.14-29.52,26.07S47.46,96.8,42.47,104.23c-3.43,5.11-7.11,7.69-10.23,8.93c-3.74,1.48-7.47,0.99-7.47,0.99 s11.08,1.95,18.94-2.33s13.24-10.86,19.45-18.21c2.53-2.99,10.37-11.3,18.9-16.69C90.58,71.52,105.26,67.19,112.84,58.5z" fill="#FFE265"/>
  <path d="M58.09,83.27c2.13,0.1,2.72-1.69,2.94-3.16c0.22-1.47-0.22-3.38-1.98-3.6 c-1.39-0.17-2.57,0.81-2.94,3.01C55.78,81.48,56.55,83.19,58.09,83.27z" fill="#FFB700"/>
  <path d="M57.73,91.13c-1.19-0.64-2.72,0.29-3.31,1.54c-0.59,1.25-0.59,2.94,0.51,3.53s2.47,0.13,3.31-1.54 C58.97,93.19,58.83,91.72,57.73,91.13z" fill="#FFB700"/>
  <path d="M62.87,88.7c-1.91-1.18-1.1-3.45,0-5.14c1.1-1.69,2.94-3.01,4.41-2.06c1.47,0.96,0.88,3.31-0.07,4.92 C66.44,87.73,64.66,89.81,62.87,88.7z" fill="#FFB700"/>
</svg>

<svg viewBox="0 0 128 128" xmlns="http://www.w3.org/2000/svg">
  <defs/>
  <path d="M44.56,106.02 L40.53,113.19 C40.53,113.19 47.35,111.43 54.07,106.96 C60.79,102.49 66.38,95.59 79.06,87.38 C93.06,78.32 110.76,76.57 119.9,66.5 C127.09,58.58 126.72,47.5 123.07,38.34 C119.06,28.29 113.17,24.55 113.17,24.55 L44.56,106.02 Z" fill="#FFB803"/>
  <path d="M96.21,32.55 C96.96,31.99 85.77,20.24 85.77,20.24 C85.77,20.24 67.68,6.82 41.95,17.82 C16.22,28.82 0.93,59.96 3.91,84.95 C6.56,107.11 16.67,114.69 27.37,114.21 C43.97,113.46 52.27,102.45 52.27,102.45 L96.21,32.55 Z" fill="#FFAA00"/>
  <path d="M84.06,21.27 C84.06,21.27 73.46,11.66 49.59,18.19 C25.72,24.72 5.03,54.74 6.52,81.22 C7.97,106.97 19.39,104.53 19.39,104.53 C19.39,104.53 51.83,53.63 52.77,52.88 C53.7,52.13 84.06,21.27 84.06,21.27 Z" fill="#FFE265"/>
  <path d="M31.43,109.76 C31.43,109.76 24.73,112.29 20.04,110.35 C15.35,108.41 12.53,102.9 12.76,99.84 C13.12,95.02 16.96,94.5 16.96,94.5 L24,81.49 L15.35,63.06 C15.35,63.06 14.78,59.5 16,57.89 C17.21,56.27 18.83,55.46 20.93,55.06 C23.03,54.66 34.19,47.3 34.19,47.3 C34.19,47.3 32,40.5 35.64,35.81 C39.28,31.12 42.75,30.64 42.75,30.64 C42.75,30.64 45.26,29.91 48.41,30.56 C51.56,31.21 53.1,32.18 53.1,32.18 L58.76,28.46 L68.06,27.81 C68.06,27.81 69.11,25.87 69.27,25.22 C69.43,24.57 69.42,22.01 73.55,19.42 C77.68,16.83 80.81,17.54 81.96,17.78 C84.03,18.21 85.49,19.2 86.11,20.88 C87,23.28 85.36,32.25 85.36,32.25 L41.41,100.73 L31.43,109.76 Z" fill="#DA8119"/>
  <path d="M31.94,54.69 L19.06,57.99 C19.06,57.99 18.95,63.89 22.75,66.34 C26.55,68.79 29.16,68.03 34.99,67.18 C40.81,66.34 47.06,65.66 48.32,63.21 C49.59,60.76 48.32,57.98 46.38,55.78 C44.44,53.59 41.12,50.24 41.12,50.24 L31.94,54.69 Z" fill="#714C40"/>
  <path d="M16.16,85.25 L14.12,84.1 C14.12,84.1 13.75,86.51 13.72,87.95 C13.66,90.71 15.42,93.31 15.42,93.31 C15.42,93.31 14.87,98.99 15.21,99.92 C15.55,100.85 31.86,103.9 31.86,103.9 L37.18,102.13 L42.24,84.74 L28.31,83.22 C28.31,83.22 16.41,84.83 16.16,85.25 Z" fill="#714C40"/>
  <path d="M71.37,30.09 L65.28,34.79 C65.28,34.79 65.74,37.4 68.47,38.04 C71.19,38.68 74.56,35.66 76.59,33.98 C78.62,32.3 82.79,27.6 82.27,26.97 C81.75,26.33 76.47,25.69 76.47,25.69 L71.37,30.09 Z" fill="#714C40"/>
  <path d="M69.05,34.61 C70.8,34.31 78.15,26.03 78.27,25.51 C78.39,24.99 72.01,23.31 69.81,24.41 C67.61,25.51 64.53,27.77 64.42,30.03 C64.3,32.29 64.36,34.44 65.29,34.78 C66.21,35.13 67.72,34.84 69.05,34.61 Z" fill="#AC5832"/>
  <path d="M26.64,63.84 C30.03,63.98 37.29,61.9 40.6,58.92 C43.91,55.94 42.29,52.06 41.81,51.09 C41.33,50.12 38.26,46.57 35.03,46.49 C31.8,46.41 20.26,52.54 19.22,56.01 C18.18,59.48 20.43,60.69 21.8,61.74 C23.17,62.79 24.62,63.76 26.64,63.84 Z" fill="#AC5832"/>
  <path d="M41.49,77.47 C41.49,77.47 42.14,75.69 42.14,74.57 C42.14,73.44 41.01,70.94 39.72,71.5 C38.43,72.06 34.48,78.04 34.48,78.04 C34.48,78.04 29.96,74.89 25.04,75.3 C20.12,75.71 16.65,79.66 15.36,81.51 C14.07,83.36 13.97,84.43 14.06,85.67 C14.15,86.91 17.62,90.79 19.07,91.76 C20.52,92.73 28.75,92.89 29.8,92.24 C30.85,91.59 35.61,86.91 36.42,85.3 C37.23,83.69 41.49,77.47 41.49,77.47 Z" fill="#AC5832"/>
  <path d="M25.91,96.6 C25.91,96.6 23.01,94.42 21.63,94.02 C20.26,93.62 15.82,94.18 15.42,95.47 C15.02,96.76 14.94,98.7 15.1,99.99 C15.26,101.28 17.52,105.4 18.25,106.44 C18.98,107.49 23.9,109.83 25.11,109.83 C26.32,109.83 29.87,109.75 30.44,109.27 C31,108.79 30.99,105.98 30.28,103.62 C29.46,100.95 25.91,96.6 25.91,96.6 Z" fill="#AC5832"/>
  <path d="M26.23,43.53 C26.01,44.26 25.5,49.58 26.63,50.39 C27.76,51.2 34.05,48.45 34.21,47.65 C34.37,46.84 33.97,42.16 33.16,40.87 C32.35,39.58 26.71,41.92 26.23,43.53 Z" fill="#4E8F34"/>
  <path d="M37.05,28.5 C35.27,29.09 33.82,36.49 34.71,37.29 C35.6,38.09 42.46,39.23 43.5,38.42 C44.55,37.61 44.87,32.13 44.23,31.4 C43.58,30.68 38.99,27.85 37.05,28.5 Z" fill="#4E8F34"/>
  <path d="M98.69,22.53 C98.69,22.53 99.17,18.58 97.24,18.17 C95.3,17.77 94.25,20.35 94.25,20.35 C94.25,20.35 93.12,15.99 91.02,15.67 C89.63,15.46 86.5,17.2 85.94,18.98 C85.38,20.76 85.21,22.61 85.21,22.61 C85.21,22.61 82.63,21.96 83.43,24.63 C84.24,27.29 85.04,30.04 85.04,30.04 C85.04,30.04 98.69,22.37 98.69,22.53 Z" fill="#4E8F34"/>
  <path d="M50.68,31 C51.04,32.59 53.34,35.44 54.23,35.52 C55.12,35.6 61.09,31.08 61.01,29.79 C60.93,28.5 58.59,23.58 56.81,23.17 C55.03,22.76 50.28,29.22 50.68,31 Z" fill="#4E8F34"/>
  <path d="M64.06,22.92 C61.64,22.27 60.03,27.76 60.51,28.73 C60.99,29.7 64.14,30.34 65.51,29.29 C66.88,28.24 66.27,23.5 64.06,22.92 Z" fill="#4E8F34"/>
  <path d="M46.81,75.94 C48.95,76.65 53.02,67.15 53.02,64.89 C53.02,62.63 48.58,60.29 47.29,60.94 C46,61.59 41.8,67.64 41.8,69.17 C41.81,70.7 45.12,75.38 46.81,75.94 Z" fill="#4E8F34"/>
  <path d="M48.75,85.22 C48.75,85.22 44.07,76.59 43.34,75.78 C42.61,74.97 41.32,73.92 39.63,75.54 C37.94,77.16 35.76,82.96 36.16,84.58 C36.56,86.2 39.39,88.78 39.23,89.1 C39.07,89.42 34.07,90.88 33.58,93.13 C33.1,95.39 34.79,101.76 36.08,102.65 C37.37,103.54 40.44,102.73 40.44,102.73 L48.75,85.22 Z" fill="#4E8F34"/>
  <path d="M13.65,63.19 C11.87,63.19 12.6,66.09 12.84,67.71 C13.08,69.32 12.52,71.42 14.62,71.58 C16.72,71.74 21.4,70.37 21.4,70.37 C21.4,70.37 21.24,68.59 20.19,66.42 C19.14,64.24 18.9,62.95 17.77,63.11 C16.64,63.27 13.65,63.19 13.65,63.19 Z" fill="#4E8F34"/>
  <path d="M26.08,75.3 C26.73,77.56 20.03,82.24 17.93,81.43 C14.52,80.12 12.69,75.62 13.33,72.96 C13.98,70.3 20.59,68.76 21.72,68.76 C22.85,68.76 25.51,73.32 26.08,75.3 Z" fill="#FCECC8"/>
  <path d="M24.62,70.7 C24.86,74.09 27.1,78.08 29.3,78.2 C30.75,78.28 33.28,76.33 35.27,74.97 C37.29,73.6 38.82,72.15 39.63,71.18 C40.44,70.21 38.42,67.47 37.21,66.02 C36,64.57 34.62,63.72 33.58,64 C31.8,64.48 30.84,65.13 28.58,66.58 C27.22,67.45 24.5,68.91 24.62,70.7 Z" fill="#FCECC8"/>
  <path d="M22.93,85.14 C23.01,87.26 24.46,87.48 26.16,88.29 C27.86,89.1 29.55,89.58 30.6,88.53 C31.65,87.48 32.46,81.83 31.97,80.3 C31.49,78.77 27.94,78.04 26.48,78.52 C25.38,78.89 22.85,82.88 22.93,85.14 Z" fill="#FCECC8"/>
  <path d="M35.19,42.62 C35.81,44.38 39.63,46.49 41.08,45.93 C42.53,45.37 43.34,38.75 42.94,37.22 C42.54,35.69 36.49,36.33 35.84,37.3 C35.19,38.26 34.71,41.25 35.19,42.62 Z" fill="#FCECC8"/>
  <path d="M43.67,42.78 C43.35,44.36 46.01,46.49 46.66,46.81 C47.31,47.13 48.6,47.13 48.6,47.13 C48.6,47.13 47.31,49.79 46.74,51.41 C46.17,53.03 44.88,56.98 46.09,57.54 C47.3,58.1 53.59,58.99 54.64,57.46 C55.69,55.93 57.3,48.67 56.42,47.54 C55.53,46.41 50.13,46.33 50.13,46.33 C50.13,46.33 51.82,45.44 52.23,44.55 C52.64,43.66 50.29,40.44 48.68,40.19 C47.05,39.96 43.99,41.17 43.67,42.78 Z" fill="#FCECC8"/>
  <path d="M46.33,36.97 C46.54,38.35 48.67,39.71 50.61,39.39 C52.55,39.07 53.11,34.15 52.63,33.66 C52.15,33.17 49.56,32.37 48.68,32.85 C47.78,33.34 46.17,35.92 46.33,36.97 Z" fill="#FCECC8"/>
  <path d="M56.25,36.41 C55.59,38.71 57.73,42.75 59.96,43.11 C61.98,43.43 67.22,39.88 67.95,38.43 C68.68,36.98 64.48,32.54 63.27,32.38 C62.06,32.22 59.96,33.75 59.16,34.32 C58.35,34.87 56.57,35.28 56.25,36.41 Z" fill="#FCECC8"/>
  <path d="M77.31,20.59 C76.24,21.25 75.71,26.99 76.58,28.5 C77.47,30.03 82.39,29.47 84.08,27.13 C84.97,25.9 84.73,20.68 83.92,20.35 C83.12,20.03 78.36,19.95 77.31,20.59 Z" fill="#FCECC8"/>
  <path d="M39.02,104.09 C39.02,104.09 38.11,101.73 36.35,101.18 C34.59,100.63 31.07,103.06 31.07,103.06 C31.07,103.06 30.52,97.48 29.37,96.33 C28.22,95.18 25.19,95.72 24.46,96.09 C23.73,96.45 21.43,97.91 21.31,98.76 C21.19,99.61 21.37,105.85 22.89,106.4 C24.41,106.95 25.56,107.25 26.71,107.07 C27.86,106.89 29.62,106.16 29.62,106.16 C29.62,106.16 29.07,108.59 29.92,109.43 C30.77,110.28 33.74,109.37 33.92,109.25 C34.11,109.12 39.02,104.09 39.02,104.09 Z" fill="#FCECC8"/>
  <path d="M36.12,113.05 L28.95,110.47 C28.95,110.47 32.23,110.14 35.43,106.7 C40.26,101.5 45.08,90.01 48.39,81.32 C51.7,72.63 55.01,63.39 59.56,54.29 C64.11,45.19 73.37,33.53 83.01,26.43 C94.87,17.7 107.32,22.12 107.32,22.12 L104.11,50.16 L48.53,106.85 L36.12,113.05 Z" fill="#FFAA00"/>
  <path d="M112.84,58.5 C121.04,49.1 121.53,36.72 117.91,29.61 C114.05,22.02 103.29,20.37 96.53,22.3 C89.8,24.22 76.95,30.44 67.01,48.37 C57.07,66.3 47.46,96.8 42.47,104.23 C39.04,109.34 35.36,111.92 32.24,113.16 C28.5,114.64 24.77,114.15 24.77,114.15 C24.77,114.15 35.85,116.1 43.71,111.82 C51.57,107.54 56.95,100.96 63.16,93.61 C65.69,90.62 73.53,82.31 82.06,76.92 C90.58,71.52 105.26,67.19 112.84,58.5 Z" fill="#FFE265"/>
  <path d="M58.09,83.27 C60.22,83.37 60.81,81.58 61.03,80.11 C61.25,78.64 60.81,76.73 59.05,76.51 C57.66,76.34 56.48,77.32 56.11,79.52 C55.78,81.48 56.55,83.19 58.09,83.27 Z" fill="#FFB700"/>
  <path d="M57.73,91.13 C56.54,90.49 55.01,91.42 54.42,92.67 C53.83,93.92 53.83,95.61 54.93,96.2 C56.03,96.79 57.4,96.33 58.24,94.66 C58.97,93.19 58.83,91.72 57.73,91.13 Z" fill="#FFB700"/>
  <path d="M62.87,88.7 C60.96,87.52 61.77,85.25 62.87,83.56 C63.97,81.87 65.81,80.55 67.28,81.5 C68.75,82.46 68.16,84.81 67.21,86.42 C66.44,87.73 64.66,89.81 62.87,88.7 Z" fill="#FFB700"/>
</svg>
